X: 3
T: Nina's
Z: JACKB
S: https://thesession.org/tunes/7272#setting26038
R: jig
M: 6/8
L: 1/8
K: Amaj
F|FAB c2B|BAc BAF|FAB c2B|Bce f2F|
FAB c2B|BAc BAB|BAc BAF|AFE F2:||
f|f3 ecB|BAc BAF|f2e ecB|Bce f3|
fea fea|fec BAB|BAc BAc|BAE F2:||
